X: 3
T: The Exile's Jig
R: slip jig
M: 9/8
L: 1/8
K: Edor
e|:edB B2A G2E|E2e e2d efg|edB B2A G2A|Bdd d2B def|
edB B2A G2E|E2e e2d efg|edB B2A G2A|Bdd d2B def:|
|:e2f gfe fed|Bee eed edB|e2f gfe fed|BAB d2B def|
e2f gfe fed|Bee eed efg|agf gfe fed|BAB d2B def:|


Tune 1327	Setting 1327

